X: 186
T: Scotch Jigg
B: 204 Favourite Country Dances
N: Published by Straight & Skillern, London ca.1775
F: http://imslp.org/wiki/204_Favourite_Country_Dances_(Various) p.93 #186
Z: 2014 John Chambers <jc:trillian.mit.edu>
M: 6/8
L: 1/8
K: D
% - - - - - - - - - - - - - - - - - - - - - - - - -
|:\
D>ED A2A | Bcd cBA | BdB AFD | E2E E3 |\
D>ED A2A | Bcd cBA | (B/c/d)B (c/d/e)c | d2d Td3 :|
|:\
d>ed fgf | ecA d2A | BdB AFD | E2E E3 |\
D>ED A2A | Bcd cde | fgf ecA | d2d Td3 :|
% - - - - - - - - - - - - - - - - - - - - - - - - -
%%begintext align
%% Turn right Hands and cast off 1. Cu. then foot
%% it all 6 sideways .| turn right Hands & cast
%% off below the 3d Cu. & turn your Partner .|.
%% lead up to the top & cast off :|. R.t & L.t at top :|:
%%endtext

%%sep 1 1 500
%%sep 1 1 500
